X:1
T:Song of Spring
T:Song of Spring
T:Album for the Young
T:Schumann, Op. 68, No. 15
C:Schumann, Op. 68, No. 15
%%score { ( 1 3 ) | ( 2 4 ) }
L:1/8
Q:3/8=56
M:6/8
K:E
V:1 treble nm="Piano" snm="Pno."
V:3 treble 
V:2 bass 
V:4 bass 
V:1
!mf!"^Innig zu spielen" (!3![EG]2 !5![EB]- [EB]!3![EF]!2!!5![DA]) | %1
!<(! (!3![EG]!2![EAe]>!3![EBd])!<)!!>(! (d2 !43!c-)!>)! | %2
 ([ce][Bd]>[Ac]) (!5![EAc]!5![=DGB]>!2!!4!!5![CFA]) | ([CFA]!5![B,^EG]>!2!!4![CF]) (!4!F2 !5!^^F) | %4
 (!3![EG]2 [EB]- [EB][EF][DA]) |!<(! !3![EG][Gg]>!4![Gf]!<)!!>(! !4!f2 !3!e-!>)! | %6
 ([eg][df]>[ce]) (!3!!5![ce]!5![FGd]>!4![EGc]) | (!4![EGc]!3!!5![F^Ad]!4![EFA] !2![DFB]3) | %8
!mf! ([EG]2 [EB]- [EB][EF][DA]) |!<(! ([EG][EAe]>[EBd])!<)!!>(! (d2 c-)!>)! | %10
 ([ce][Bd]>[Ac]) ([EAc][=DGB]>[CFA]) | ([CFA][B,^EG]>[CF]) (F2 ^^F) | ([EG]2 [EB]- [EB][EF][DA]) | %13
!<(! [EG][Gg]>[Gf]!<)!!>(! f2 e-!>)! | ([eg][df]>[ce]) ([ce][FGd]>[EGc]) | %15
 ([EGc][F^Ad][EFA]!>(! [DFB]3)!>)! || ([=Ad=a]!>(!!4!fd !5!f!4!e!1!G)!>)! | (!5!B2 A !3!G3) | %18
 (!2!G!3!^A!<(!!1!^B cd!1!e)!<)! |!>(! (!5!gf!3!d!>)! fec) | %20
!pp! .!2!!4![ce]2 [ce]- [ce](.[ce].!2!!5![c^e]) | (!1!!3![=df][fa]>[df]) (!3!!5![ce]2 !2!!4![Ac]) | %22
 !4![EAc]2 [EAc]- [EAc](.[EAc].[^EAc]) | (!5!=e2 !45!=d)!<(! !4![EAc]2!f! !4![EA]!<)! | %24
 (!3!G2 B- B!3!F!5!A) | (!1!!3![EG]!2![EAe]>[EBd]) (d2 c-) | ([ce][Bd]>[Ac]) ([EAc][=DGB]>[CFA]) | %27
 ([CFA][B,^EG]>[CF]) (F2 ^^F) | ([EG]2 [EB]- [EB][EF][DA]) |!<(! [EG][Gg]>[Gf]!<)!!>(! f2 e-!>)! | %30
 ([eg][df]>[ce]) ([ce][FGd]>[EGc]) | ([EGc][F^Ad][EFA] [DFB]3) | ([=Ad=a]!>(!fd feG)!>)! | %33
 (B2 A G3) | (G^A!<(!^B cde)!<)! |!>(! (gfd!>)! fe!2!c) |!pp! .[ce]2 [ce]- [ce](.[ce].[c^e]) | %37
 ([=df][fa]>[df]) ([ce]2 [Ac]) | [EAc]2 [EAc]- [EAc](.[EAc].[^EAc]) | %39
 (=e2 =d)!<(! [EAc]2!f! [EA]!<)! | (G2 B- BFA) | ([EG][EAe]>[EBd]) (d2 c) | %42
 ([Ada]fd) (!5!f!4!e!2!G) | (!3!!5![GB]2 [FA] [^EG]2) (!2![EG]- | %44
[Q:1/4=84]"^Etwas langsamer"!<(! [EG]!2!!3![GB]!3!!5![B=d]!<)!!>(! !1!!3!!5![dgb]!2!!3!!5![cfa]!1!!3![Ac])!>)! | %45
 (!2!!5![Be]2 !1!!4![Ad] !2!!5![Ge]3) |] %46
V:2
 (!5!E,2 G,- G,B,B,,) | (!5!E,F,>G,) !2!A,3 | z6 | (!4!F,,G,,>A,,) B,,3 | (!5!E,2 G,- G,B,B,,) | %5
 (!5!E,!1!G,>!4!!2![^B,D]) ([B,D]2 [CE]) | z2 z (!4!G,^B,>C) | (!3!F,3 [B,,B,]3) | %8
 (E,2 G,- G,B,B,,) | (E,F,>G,) A,3 | z6 | (F,,G,,>A,,) B,,3 | (E,2 G,- G,B,B,,) | %13
 (E,G,>[^B,D]) ([B,D]2 [CE]) | z2 z (G,^B,>C) | (F,3 [B,,B,]3) ||[K:treble] !2!F3 G3 | !3!B,6 | %18
 G,6 | (!4!^A,2 !3!^B,) (C2 E) |"_u.c." (!2!A6 | !5!=D3 !1!A3) |[K:bass] (!2!A,6 | %23
 =D,3 !1!A,2)"_tre corde" !3!C | !4!B,3 C2 D | (EF,>G,) A,3 | z6 | (F,,G,,>A,,) B,,3 | %28
 (E,2 G,- G,B,B,,) | (E,G,>[^B,D]) ([B,D]2 [CE]) | z2 z (G,^B,>C) | (F,3 [B,,B,]3) | %32
[K:treble] F3 G3 | !3!B,6 | G,6 | (^A,2 ^B,) (C2 E) |"_u.c." (A6 | =D3 A3) |[K:bass] (A,6 | %39
 =D,3 A,2)"_tre \ncorde\n" C | B,3 C2 D | (EF,>G,) A,3 | (!2!B,2 !1!^B,) (!2!C2 !5!!3![F,^A,]) | %43
 (!2!=B,2 !1!^B, !2!C3) | !1!C3- (!5![^E,C]!4!F,!3![A,F]) | (!1!G2 F E3) |] %46
V:3
 x6 | x3 !2![EA]3 | x6 | x3 !2!D3 | x6 | x3 G3 | x6 | x6 | x6 | x3 [EA]3 | x6 | x3 D3 | x6 | %13
 x3 G3 | x6 | x6 || x6 | !4!AF!1!!4!D !2!FE[I:staff +1]!5!G,- | %18
[I:staff -1] (G[I:staff +1]FD !1!F!2!E!3!C) |[I:staff -1] c2 G- G3 | x6 | x6 | x6 | [FA]A>F x3 | %24
 E3- EF!1!B, | x3 [EA]3 | x6 | x3 D3 | x6 | x3 G3 | x6 | x6 | x6 | (AFD FE[I:staff +1]!5!G,-) | %34
[I:staff -1] G[I:staff +1]FD FEC |[I:staff -1] c2 G- G3 | x6 | x6 | x6 | [FA]A>F x3 | E3- EFB, | %41
 x3 [EA]3 | x3 G2 E | x6 | x6 | x6 |] %46
V:4
 x6 | x6 | x6 | x6 | x6 | x6 | x6 | x6 | x6 | x6 | x6 | x6 | x6 | x6 | x6 | x6 ||[K:treble] B,6 | %17
 x6 | x6 | G,3 C3 | x6 | x6 |[K:bass] x6 | x6 | x6 | x6 | x6 | x6 | x6 | x6 | x6 | x6 | %32
[K:treble] B,6 | x6 | x6 | G,3 C3 | x6 | x6 |[K:bass] x6 | x6 | x6 | x6 | x6 | x6 | x6 | B,3 E3 |] %46

